assets/icons/icon_calendar_ldpi.svg

<svg width="30" height="30" viewBox="0 0 30 30" fill="none"
    xmlns="http://www.w3.org/2000/svg">
    <g clip-path="url(#clip0_116_228)">
        <path d="M22.6172 13.4766C23.2644 13.4766 23.7891 12.9519 23.7891 12.3047C23.7891 11.6575 23.2644 11.1328 22.6172 11.1328C21.97 11.1328 21.4453 11.6575 21.4453 12.3047C21.4453 12.9519 21.97 13.4766 22.6172 13.4766Z" fill="#818CF8"/>
        <path d="M25.3125 2.34375H23.7891V1.17188C23.7891 0.524648 23.2644 0 22.6172 0C21.97 0 21.4453 0.524648 21.4453 1.17188V2.34375H16.1133V1.17188C16.1133 0.524648 15.5886 0 14.9414 0C14.2942 0 13.7695 0.524648 13.7695 1.17188V2.34375H8.49609V1.17188C8.49609 0.524648 7.97145 0 7.32422 0C6.67699 0 6.15234 0.524648 6.15234 1.17188V2.34375H4.6875C2.10281 2.34375 0 4.44656 0 7.03125V25.3125C0 27.8972 2.10281 30 4.6875 30H13.6523C14.2996 30 14.8242 29.4754 14.8242 28.8281C14.8242 28.1809 14.2996 27.6562 13.6523 27.6562H4.6875C3.39516 27.6562 2.34375 26.6048 2.34375 25.3125V7.03125C2.34375 5.73891 3.39516 4.6875 4.6875 4.6875H6.15234V5.85938C6.15234 6.5066 6.67699 7.03125 7.32422 7.03125C7.97145 7.03125 8.49609 6.5066 8.49609 5.85938V4.6875H13.7695V5.85938C13.7695 6.5066 14.2942 7.03125 14.9414 7.03125C15.5886 7.03125 16.1133 6.5066 16.1133 5.85938V4.6875H21.4453V5.85938C21.4453 6.5066 21.97 7.03125 22.6172 7.03125C23.2644 7.03125 23.7891 6.5066 23.7891 5.85938V4.6875H25.3125C26.6048 4.6875 27.6562 5.73891 27.6562 7.03125V13.7109C27.6562 14.3582 28.1809 14.8828 28.8281 14.8828C29.4754 14.8828 30 14.3582 30 13.7109V7.03125C30 4.44656 27.8972 2.34375 25.3125 2.34375Z" fill="#3730A3"/>
        <path d="M22.4102 15.4102C18.5008 15.4102 15.3203 18.5906 15.3203 22.5C15.3203 26.4094 18.5008 29.5898 22.4102 29.5898C26.3195 29.5898 29.5 26.4094 29.5 22.5C29.5 18.5906 26.3195 15.4102 22.4102 15.4102Z" fill="#6366F1"/>
        <path d="M23.8711 21.4023H23.3438V20.1719C23.3438 19.5246 22.8191 19 22.1719 19C21.5246 19 21 19.5246 21 20.1719V22.5742C21 23.2214 21.5246 23.7461 22.1719 23.7461H23.8711C24.5183 23.7461 25.043 23.2214 25.043 22.5742C25.043 21.927 24.5183 21.4023 23.8711 21.4023Z" fill="white"/>
        <path d="M17.5195 13.4766C18.1667 13.4766 18.6914 12.9519 18.6914 12.3047C18.6914 11.6575 18.1667 11.1328 17.5195 11.1328C16.8723 11.1328 16.3477 11.6575 16.3477 12.3047C16.3477 12.9519 16.8723 13.4766 17.5195 13.4766Z" fill="#818CF8"/>
        <path d="M12.4219 18.5742C13.0691 18.5742 13.5938 18.0496 13.5938 17.4023C13.5938 16.7551 13.0691 16.2305 12.4219 16.2305C11.7747 16.2305 11.25 16.7551 11.25 17.4023C11.25 18.0496 11.7747 18.5742 12.4219 18.5742Z" fill="#818CF8"/>
        <path d="M7.32422 13.4766C7.97143 13.4766 8.49609 12.9519 8.49609 12.3047C8.49609 11.6575 7.97143 11.1328 7.32422 11.1328C6.67701 11.1328 6.15234 11.6575 6.15234 12.3047C6.15234 12.9519 6.67701 13.4766 7.32422 13.4766Z" fill="#818CF8"/>
        <path d="M7.32422 18.5742C7.97143 18.5742 8.49609 18.0496 8.49609 17.4023C8.49609 16.7551 7.97143 16.2305 7.32422 16.2305C6.67701 16.2305 6.15234 16.7551 6.15234 17.4023C6.15234 18.0496 6.67701 18.5742 7.32422 18.5742Z" fill="#818CF8"/>
        <path d="M7.32422 23.6719C7.97143 23.6719 8.49609 23.1472 8.49609 22.5C8.49609 21.8528 7.97143 21.3281 7.32422 21.3281C6.67701 21.3281 6.15234 21.8528 6.15234 22.5C6.15234 23.1472 6.67701 23.6719 7.32422 23.6719Z" fill="#818CF8"/>
        <path d="M12.4219 23.6719C13.0691 23.6719 13.5938 23.1472 13.5938 22.5C13.5938 21.8528 13.0691 21.3281 12.4219 21.3281C11.7747 21.3281 11.25 21.8528 11.25 22.5C11.25 23.1472 11.7747 23.6719 12.4219 23.6719Z" fill="#818CF8"/>
        <path d="M12.4219 13.4766C13.0691 13.4766 13.5938 12.9519 13.5938 12.3047C13.5938 11.6575 13.0691 11.1328 12.4219 11.1328C11.7747 11.1328 11.25 11.6575 11.25 12.3047C11.25 12.9519 11.7747 13.4766 12.4219 13.4766Z" fill="#818CF8"/>
    </g>
    <defs>
        <clipPath id="clip0_116_228">
            <rect width="30" height="30" fill="white"/>
        </clipPath>
    </defs>
</svg>

<svg fill="none" xmlns="http://www.w3.org/2000/svg" viewBox="0 0 30 30"><g clip-path="url(#a)"><path d="M22.62 13.48a1.17 1.17 0 1 0 0-2.35 1.17 1.17 0 0 0 0 2.35" fill="#818CF8"/><path d="M25.31 2.34H23.8V1.17a1.17 1.17 0 0 0-2.34 0v1.17H16.1V1.17a1.17 1.17 0 0 0-2.34 0v1.17H8.5V1.17a1.17 1.17 0 1 0-2.35 0v1.17H4.7A4.7 4.7 0 0 0 0 7.04V25.3A4.7 4.7 0 0 0 4.69 30h8.96a1.17 1.17 0 1 0 0-2.34H4.7a2.35 2.35 0 0 1-2.35-2.35V7.03c0-1.3 1.06-2.34 2.35-2.34h1.46v1.17a1.17 1.17 0 1 0 2.35 0V4.69h5.27v1.17a1.17 1.17 0 0 0 2.34 0V4.69h5.34v1.17a1.17 1.17 0 0 0 2.34 0V4.69h1.52c1.3 0 2.35 1.05 2.35 2.34v6.68a1.17 1.17 0 1 0 2.34 0V7.03a4.7 4.7 0 0 0-4.69-4.69" fill="#3730A3"/><path d="M22.41 15.41a7.1 7.1 0 1 0 .02 14.2 7.1 7.1 0 0 0-.02-14.2" fill="#6366F1"/><path d="M23.87 21.4h-.53v-1.23a1.17 1.17 0 1 0-2.34 0v2.4c0 .65.52 1.18 1.17 1.18h1.7a1.17 1.17 0 0 0 0-2.35" fill="#fff"/><path d="M17.52 13.48a1.17 1.17 0 1 0 0-2.35 1.17 1.17 0 0 0 0 2.35m-5.1 5.09a1.17 1.17 0 1 0 0-2.34 1.17 1.17 0 0 0 0 2.34m-5.1-5.09a1.17 1.17 0 1 0 0-2.35 1.17 1.17 0 0 0 0 2.35m0 5.09a1.17 1.17 0 1 0 0-2.34 1.17 1.17 0 0 0 0 2.34m0 5.1a1.17 1.17 0 1 0 0-2.34 1.17 1.17 0 0 0 0 2.34m5.1 0a1.17 1.17 0 1 0 0-2.34 1.17 1.17 0 0 0 0 2.34m0-10.19a1.17 1.17 0 1 0 0-2.35 1.17 1.17 0 0 0 0 2.35" fill="#818CF8"/></g><defs><clipPath id="a"><path fill="#fff" d="M0 0h30v30H0z"/></clipPath></defs></svg>
